src/images/align-left.svg

<?xml version="1.0" encoding="UTF-8" standalone="no"?>
<svg
   xmlns:dc="http://purl.org/dc/elements/1.1/"
   xmlns:cc="http://creativecommons.org/ns#"
   xmlns:rdf="http://www.w3.org/1999/02/22-rdf-syntax-ns#"
   xmlns:svg="http://www.w3.org/2000/svg"
   xmlns="http://www.w3.org/2000/svg"
   xmlns:sodipodi="http://sodipodi.sourceforge.net/DTD/sodipodi-0.dtd"
   xmlns:inkscape="http://www.inkscape.org/namespaces/inkscape"
   height="800"
   id="svg2"
   version="1.1"
   width="800"
   inkscape:version="0.91 r13725"
   sodipodi:docname="align-left.svg">
  <metadata
     id="metadata11">
    <rdf:RDF>
      <cc:Work
         rdf:about="">
        <dc:format>image/svg+xml</dc:format>
        <dc:type
           rdf:resource="http://purl.org/dc/dcmitype/StillImage" />
        <dc:title></dc:title>
      </cc:Work>
    </rdf:RDF>
  </metadata>
  <sodipodi:namedview
     pagecolor="#ffffff"
     bordercolor="#666666"
     borderopacity="1"
     objecttolerance="10"
     gridtolerance="10"
     guidetolerance="10"
     inkscape:pageopacity="0"
     inkscape:pageshadow="2"
     inkscape:window-width="2560"
     inkscape:window-height="1406"
     id="namedview9"
     showgrid="false"
     inkscape:zoom="0.65186406"
     inkscape:cx="-351.46909"
     inkscape:cy="58.100663"
     inkscape:window-x="0"
     inkscape:window-y="0"
     inkscape:window-maximized="1"
     inkscape:current-layer="svg2" />
  <defs
     id="defs4" />
  <g
     id="layer1"
     transform="translate(144,-396.36218)">
    <g
       id="g4305">
      <g
         id="g4345"
         transform="translate(28,-40.00001)">
        <path
           d="m 84,40 0,48 320,0 0,-48 -320,0 z m 0,96 0,48 400,0 0,-48 -400,0 z m 0,96 0,48 224,0 0,-48 -224,0 z m 0,96 0,48 160,0 0,-48 -160,0 z m 0,96 0,48 272,0 0,-48 -272,0 z"
           id="rect2985"
           style="color:#000000;display:inline;overflow:visible;visibility:visible;fill:#222222;fill-opacity:1;fill-rule:nonzero;stroke:none;stroke-width:20;marker:none;enable-background:accumulate"
           transform="translate(-28,580.36219)"
           inkscape:connector-curvature="0" />
        <path
           d="m 0,596.36218 0,480.00002 24,0 0,-480.00002 z"
           id="rect2985-1"
           style="color:#000000;display:inline;overflow:visible;visibility:visible;fill:#2980b9;fill-opacity:1;fill-rule:nonzero;stroke:none;stroke-width:20;marker:none;enable-background:accumulate"
           inkscape:connector-curvature="0" />
      </g>
    </g>
  </g>
</svg>

<?xml version="1.0" ?><svg height="512" id="svg2" version="1.1" width="512" xmlns="http://www.w3.org/2000/svg" xmlns:cc="http://creativecommons.org/ns#" xmlns:dc="http://purl.org/dc/elements/1.1/" xmlns:inkscape="http://www.inkscape.org/namespaces/inkscape" xmlns:rdf="http://www.w3.org/1999/02/22-rdf-syntax-ns#" xmlns:sodipodi="http://sodipodi.sourceforge.net/DTD/sodipodi-0.dtd" xmlns:svg="http://www.w3.org/2000/svg"><defs id="defs4"/><g id="layer1" transform="translate(0,-540.36218)"><g id="g4305"><g id="g4345" transform="translate(28,-40.00001)"><path d="M 84 40 L 84 88 L 404 88 L 404 40 L 84 40 z M 84 136 L 84 184 L 484 184 L 484 136 L 84 136 z M 84 232 L 84 280 L 308 280 L 308 232 L 84 232 z M 84 328 L 84 376 L 244 376 L 244 328 L 84 328 z M 84 424 L 84 472 L 356 472 L 356 424 L 84 424 z " id="rect2985" style="color:#000000;fill:#222222;fill-opacity:1;fill-rule:nonzero;stroke:none;stroke-width:20;marker:none;visibility:visible;display:inline;overflow:visible;enable-background:accumulate" transform="translate(-28,580.36219)"/><path d="m 0,596.36218 0,480.00002 24,0 0,-480.00002 z" id="rect2985-1" style="color:#000000;fill:#2980b9;fill-opacity:1;fill-rule:nonzero;stroke:none;stroke-width:20;marker:none;visibility:visible;display:inline;overflow:visible;enable-background:accumulate"/></g></g></g></svg>
